X:17
T:Nonesuch     %Tune name
Q:1/4=217     %Tempo
M:4/4     %Meter
L:1/8     %
K:Dm
a2 | "Dm"a2 f2 g2 a2 | "Dm"f2 ef d2 a2 | "Dm"a2 f2 g2 a2 | f6 a2 |
"Dm"a2 f2 g2 a2 | "Dm"f2 ef d2 a2 | "Dm"a2 f2 g2 a2 | "Dm"f4 d2 e2 | "Am"e2 c2 d2 e2 |
"Dm"f2 ef d2 e2 | "Am"e2 c2 d2 e2 | "Dm"f4 d2 e2 | "Am"e2 c2 d2 e2 | "Dm"f2 ef d2 e2 |
"Am"e2 c2 d2 e2 | "Dm"f4 d2 |]

%%footer $D   Galouvielle-MBe 2006 \nCercle ou chapelloise (--)
